apps/www/public/images/blog/ga-week/ai-inference-now-available-in-supabase-edge-functions/infra-01.svg

<svg xmlns="http://www.w3.org/2000/svg" width="1600" height="940" fill="none" viewBox="0 0 1600 940"><path fill="#1c1c1c" d="M0 0h1600v940H0z"/><path fill="#ededed" d="M703.554 128v-15.84h10.008v2.328h-7.248v4.104h6.144v2.328h-6.144v4.728h7.488V128zm16.071 0v-15.84h4.056c4.632 0 7.416 2.616 7.416 7.848S728.313 128 723.825 128zm2.784-2.256h1.104c3.024 0 4.728-1.848 4.728-5.736s-1.704-5.616-4.728-5.616h-1.104zm20.367 2.544c-3.984 0-6.984-2.928-6.984-8.16 0-5.208 3.024-8.256 7.104-8.256 2.088 0 3.504.984 4.464 1.968l-1.536 1.728c-.72-.768-1.56-1.296-2.928-1.296-2.496 0-4.248 2.184-4.248 5.76 0 3.624 1.512 5.856 4.296 5.856.84 0 1.656-.264 2.136-.72v-3.456h-2.712v-2.28h5.208v6.984c-1.032 1.008-2.784 1.872-4.8 1.872m11.15-.288v-15.84h10.008v2.328h-7.248v4.104h6.144v2.328h-6.144v4.728h7.488V128zm33.101 0v-15.84h5.232c3.24 0 5.76 1.152 5.76 4.68 0 2.4-1.248 3.864-3.144 4.512l3.768 6.648h-3.12l-3.408-6.216h-2.328V128zm2.76-8.448h2.184c2.16 0 3.312-.912 3.312-2.712 0-1.848-1.152-2.472-3.312-2.472h-2.184zm19.239 8.736c-3.456 0-5.52-1.992-5.52-6.336v-9.792h2.76v9.984c0 2.616 1.056 3.744 2.76 3.744 1.68 0 2.76-1.128 2.76-3.744v-9.984h2.688v9.792c0 4.344-2.016 6.336-5.448 6.336m11.343-.288v-15.84h2.808l4.224 8.976 1.464 3.36h.072c-.12-1.632-.384-3.624-.384-5.376v-6.96h2.64V128h-2.832l-4.2-9-1.464-3.336h-.072c.12 1.68.384 3.576.384 5.328V128zm20.798 0v-13.512h-4.92v-2.328h12.648v2.328h-4.944V128zm13.023 0v-2.352h3.768v-11.16h-3.768v-2.328h10.344v2.328h-3.792v11.16h3.792V128zm16.455 0v-15.84h2.952l2.184 6.192.768 2.376h.096l.72-2.376 2.184-6.192h2.952V128h-2.352v-7.128c0-1.512.216-4.488.36-5.976h-.096l-1.2 3.864-1.992 4.968h-1.344l-2.016-4.968-1.2-3.864h-.072c.12 1.488.36 4.464.36 5.976V128zm18.45 0v-15.84h10.008v2.328h-7.248v4.104h6.144v2.328h-6.144v4.728h7.488V128z"/><rect width="812" height="631" x="395" y="155" stroke="#fd880b" stroke-linecap="round" stroke-width="2" rx="32"/><rect width="220" height="423" x="943" y="203" fill="#4d4d4d" fill-opacity=".1" rx="32"/><rect width="220" height="423" x="943" y="203" stroke="#4d4d4d" stroke-dasharray="8 16" stroke-linecap="round" stroke-width="2" rx="32"/><rect width="220" height="102" x="943" y="652" fill="#4d4d4d" fill-opacity=".1" rx="32"/><rect width="220" height="102" x="943" y="652" stroke="#4d4d4d" stroke-linecap="round" stroke-width="2" rx="32"/><rect width="220" height="423" x="691" y="203" fill="#4d4d4d" fill-opacity=".1" rx="32"/><rect width="220" height="423" x="691" y="203" stroke="#4d4d4d" stroke-dasharray="8 16" stroke-linecap="round" stroke-width="2" rx="32"/><rect width="220" height="102" x="691" y="652" fill="#4d4d4d" fill-opacity=".1" rx="32"/><rect width="220" height="102" x="691" y="652" stroke="#4d4d4d" stroke-linecap="round" stroke-width="2" rx="32"/><rect width="220" height="423" x="439" y="203" fill="#4d4d4d" fill-opacity=".1" rx="32"/><rect width="220" height="423" x="439" y="203" stroke="#4d4d4d" stroke-dasharray="8 16" stroke-linecap="round" stroke-width="2" rx="32"/><rect width="220" height="102" x="439" y="652" fill="#4d4d4d" fill-opacity=".1" rx="32"/><rect width="220" height="102" x="439" y="652" stroke="#4d4d4d" stroke-linecap="round" stroke-width="2" rx="32"/><path fill="#ededed" d="M493.473 415v-2.352h3.768v-11.16h-3.768v-2.328h10.344v2.328h-3.792v11.16h3.792V415zm21.998.288c-2.208 0-4.296-.84-5.832-2.328l1.608-1.896c1.176 1.08 2.736 1.824 4.272 1.824 1.944 0 2.928-.816 2.928-2.088 0-1.32-1.056-1.728-2.616-2.352l-2.136-.936c-1.68-.648-3.384-1.896-3.384-4.2 0-2.52 2.256-4.44 5.448-4.44 1.944 0 3.744.744 5.04 2.016l-1.44 1.752c-1.056-.864-2.136-1.368-3.6-1.368-1.632 0-2.64.696-2.64 1.896 0 1.248 1.272 1.68 2.688 2.256l2.064.888c1.992.816 3.408 1.968 3.408 4.272 0 2.568-2.136 4.704-5.808 4.704m16.743 0c-3.624 0-6.168-3.168-6.168-8.28 0-5.136 2.544-8.136 6.168-8.136 3.648 0 6.168 3.024 6.168 8.136s-2.52 8.28-6.168 8.28m0-2.4c2.016 0 3.336-2.304 3.336-5.88s-1.32-5.736-3.336-5.736-3.312 2.16-3.312 5.736 1.296 5.88 3.312 5.88M544.709 415v-15.84h2.736v13.488h7.392V415zm14.39 0 5.088-15.84h3.24l5.088 15.84h-2.928l-1.224-4.32h-5.208l-1.248 4.32zm4.656-6.504h4.008l-.552-1.968c-.48-1.68-.96-3.456-1.416-5.208h-.096a149 149 0 0 1-1.392 5.208zM581.194 415v-13.512h-4.92v-2.328h12.648v2.328h-4.944V415zm13.503 0v-15.84h10.008v2.328h-7.248v4.104h6.144v2.328h-6.144v4.728h7.488V415zM532.214 715.288c-3.624 0-6.168-3.168-6.168-8.28 0-5.136 2.544-8.136 6.168-8.136 3.648 0 6.168 3.024 6.168 8.136s-2.52 8.28-6.168 8.28m0-2.4c2.016 0 3.336-2.304 3.336-5.88s-1.32-5.736-3.336-5.736-3.312 2.16-3.312 5.736 1.296 5.88 3.312 5.88M543.845 715v-15.84h5.232c3.24 0 5.76 1.152 5.76 4.68 0 2.4-1.248 3.864-3.144 4.512l3.768 6.648h-3.12l-3.408-6.216h-2.328V715zm2.76-8.448h2.184c2.16 0 3.312-.912 3.312-2.712 0-1.848-1.152-2.472-3.312-2.472h-2.184zM564.403 715v-13.512h-4.92v-2.328h12.648v2.328h-4.944V715zM745.473 415v-2.352h3.768v-11.16h-3.768v-2.328h10.344v2.328h-3.792v11.16h3.792V415zm21.998.288c-2.208 0-4.296-.84-5.832-2.328l1.608-1.896c1.176 1.08 2.736 1.824 4.272 1.824 1.944 0 2.928-.816 2.928-2.088 0-1.32-1.056-1.728-2.616-2.352l-2.136-.936c-1.68-.648-3.384-1.896-3.384-4.2 0-2.52 2.256-4.44 5.448-4.44 1.944 0 3.744.744 5.04 2.016l-1.44 1.752c-1.056-.864-2.136-1.368-3.6-1.368-1.632 0-2.64.696-2.64 1.896 0 1.248 1.272 1.68 2.688 2.256l2.064.888c1.992.816 3.408 1.968 3.408 4.272 0 2.568-2.136 4.704-5.808 4.704m16.743 0c-3.624 0-6.168-3.168-6.168-8.28 0-5.136 2.544-8.136 6.168-8.136 3.648 0 6.168 3.024 6.168 8.136s-2.52 8.28-6.168 8.28m0-2.4c2.016 0 3.336-2.304 3.336-5.88s-1.32-5.736-3.336-5.736-3.312 2.16-3.312 5.736 1.296 5.88 3.312 5.88M796.709 415v-15.84h2.736v13.488h7.392V415zm14.39 0 5.088-15.84h3.24l5.088 15.84h-2.928l-1.224-4.32h-5.208l-1.248 4.32zm4.656-6.504h4.008l-.552-1.968c-.48-1.68-.96-3.456-1.416-5.208h-.096a149 149 0 0 1-1.392 5.208zM833.194 415v-13.512h-4.92v-2.328h12.648v2.328h-4.944V415zm13.503 0v-15.84h10.008v2.328h-7.248v4.104h6.144v2.328h-6.144v4.728h7.488V415zM784.214 715.288c-3.624 0-6.168-3.168-6.168-8.28 0-5.136 2.544-8.136 6.168-8.136 3.648 0 6.168 3.024 6.168 8.136s-2.52 8.28-6.168 8.28m0-2.4c2.016 0 3.336-2.304 3.336-5.88s-1.32-5.736-3.336-5.736-3.312 2.16-3.312 5.736 1.296 5.88 3.312 5.88M795.845 715v-15.84h5.232c3.24 0 5.76 1.152 5.76 4.68 0 2.4-1.248 3.864-3.144 4.512l3.768 6.648h-3.12l-3.408-6.216h-2.328V715zm2.76-8.448h2.184c2.16 0 3.312-.912 3.312-2.712 0-1.848-1.152-2.472-3.312-2.472h-2.184zM816.403 715v-13.512h-4.92v-2.328h12.648v2.328h-4.944V715zM997.473 415v-2.352h3.767v-11.16h-3.767v-2.328h10.347v2.328h-3.8v11.16h3.8V415zm21.997.288c-2.21 0-4.29-.84-5.83-2.328l1.61-1.896c1.17 1.08 2.73 1.824 4.27 1.824 1.94 0 2.93-.816 2.93-2.088 0-1.32-1.06-1.728-2.62-2.352l-2.13-.936c-1.68-.648-3.39-1.896-3.39-4.2 0-2.52 2.26-4.44 5.45-4.44 1.94 0 3.74.744 5.04 2.016l-1.44 1.752c-1.06-.864-2.14-1.368-3.6-1.368-1.63 0-2.64.696-2.64 1.896 0 1.248 1.27 1.68 2.69 2.256l2.06.888c1.99.816 3.41 1.968 3.41 4.272 0 2.568-2.14 4.704-5.81 4.704m16.74 0c-3.62 0-6.16-3.168-6.16-8.28 0-5.136 2.54-8.136 6.16-8.136 3.65 0 6.17 3.024 6.17 8.136s-2.52 8.28-6.17 8.28m0-2.4c2.02 0 3.34-2.304 3.34-5.88s-1.32-5.736-3.34-5.736c-2.01 0-3.31 2.16-3.31 5.736s1.3 5.88 3.31 5.88m12.5 2.112v-15.84h2.73v13.488h7.4V415zm14.39 0 5.09-15.84h3.24l5.09 15.84h-2.93l-1.23-4.32h-5.2l-1.25 4.32zm4.66-6.504h4l-.55-1.968c-.48-1.68-.96-3.456-1.41-5.208h-.1c-.43 1.752-.91 3.528-1.39 5.208zm17.43 6.504v-13.512h-4.92v-2.328h12.65v2.328h-4.94V415zm13.51 0v-15.84h10v2.328h-7.24v4.104h6.14v2.328h-6.14v4.728h7.48V415zM1036.21 715.288c-3.62 0-6.16-3.168-6.16-8.28 0-5.136 2.54-8.136 6.16-8.136 3.65 0 6.17 3.024 6.17 8.136s-2.52 8.28-6.17 8.28m0-2.4c2.02 0 3.34-2.304 3.34-5.88s-1.32-5.736-3.34-5.736c-2.01 0-3.31 2.16-3.31 5.736s1.3 5.88 3.31 5.88m11.63 2.112v-15.84h5.24c3.24 0 5.76 1.152 5.76 4.68 0 2.4-1.25 3.864-3.15 4.512l3.77 6.648h-3.12l-3.41-6.216h-2.33V715zm2.76-8.448h2.19c2.16 0 3.31-.912 3.31-2.712 0-1.848-1.15-2.472-3.31-2.472h-2.19zm17.8 8.448v-13.512h-4.92v-2.328h12.65v2.328h-4.94V715z"/></svg>

<svg width="1600" height="940" viewBox="0 0 1600 940" fill="none" xmlns="http://www.w3.org/2000/svg">
<rect width="1600" height="940" fill="#1C1C1C"/>
<path d="M703.554 128V112.16H713.562V114.488H706.314V118.592H712.458V120.92H706.314V125.648H713.802V128H703.554ZM719.625 128V112.16H723.681C728.313 112.16 731.097 114.776 731.097 120.008C731.097 125.24 728.313 128 723.825 128H719.625ZM722.409 125.744H723.513C726.537 125.744 728.241 123.896 728.241 120.008C728.241 116.12 726.537 114.392 723.513 114.392H722.409V125.744ZM742.776 128.288C738.792 128.288 735.792 125.36 735.792 120.128C735.792 114.92 738.816 111.872 742.896 111.872C744.984 111.872 746.4 112.856 747.36 113.84L745.824 115.568C745.104 114.8 744.264 114.272 742.896 114.272C740.4 114.272 738.648 116.456 738.648 120.032C738.648 123.656 740.16 125.888 742.944 125.888C743.784 125.888 744.6 125.624 745.08 125.168V121.712H742.368V119.432H747.576V126.416C746.544 127.424 744.792 128.288 742.776 128.288ZM753.926 128V112.16H763.934V114.488H756.686V118.592H762.83V120.92H756.686V125.648H764.174V128H753.926ZM787.027 128V112.16H792.259C795.499 112.16 798.019 113.312 798.019 116.84C798.019 119.24 796.771 120.704 794.875 121.352L798.643 128H795.523L792.115 121.784H789.787V128H787.027ZM789.787 119.552H791.971C794.131 119.552 795.283 118.64 795.283 116.84C795.283 114.992 794.131 114.368 791.971 114.368H789.787V119.552ZM809.026 128.288C805.57 128.288 803.506 126.296 803.506 121.952V112.16H806.266V122.144C806.266 124.76 807.322 125.888 809.026 125.888C810.706 125.888 811.786 124.76 811.786 122.144V112.16H814.474V121.952C814.474 126.296 812.458 128.288 809.026 128.288ZM820.369 128V112.16H823.177L827.401 121.136L828.865 124.496H828.937C828.817 122.864 828.553 120.872 828.553 119.12V112.16H831.193V128H828.361L824.161 119L822.697 115.664H822.625C822.745 117.344 823.009 119.24 823.009 120.992V128H820.369ZM841.167 128V114.488H836.247V112.16H848.895V114.488H843.951V128H841.167ZM854.19 128V125.648H857.958V114.488H854.19V112.16H864.534V114.488H860.742V125.648H864.534V128H854.19ZM870.645 128V112.16H873.597L875.781 118.352L876.549 120.728H876.645L877.365 118.352L879.549 112.16H882.501V128H880.149V120.872C880.149 119.36 880.365 116.384 880.509 114.896H880.413L879.213 118.76L877.221 123.728H875.877L873.861 118.76L872.661 114.896H872.589C872.709 116.384 872.949 119.36 872.949 120.872V128H870.645ZM889.095 128V112.16H899.103V114.488H891.855V118.592H897.999V120.92H891.855V125.648H899.343V128H889.095Z" fill="#EDEDED"/>
<rect x="395" y="155" width="812" height="631" rx="32" stroke="#FD880B" stroke-width="2" stroke-linecap="round"/>
<rect x="943" y="203" width="220" height="423" rx="32" fill="#4D4D4D" fill-opacity="0.1"/>
<rect x="943" y="203" width="220" height="423" rx="32" stroke="#4D4D4D" stroke-width="2" stroke-linecap="round" stroke-dasharray="8 16"/>
<rect x="943" y="652" width="220" height="102" rx="32" fill="#4D4D4D" fill-opacity="0.1"/>
<rect x="943" y="652" width="220" height="102" rx="32" stroke="#4D4D4D" stroke-width="2" stroke-linecap="round"/>
<rect x="691" y="203" width="220" height="423" rx="32" fill="#4D4D4D" fill-opacity="0.1"/>
<rect x="691" y="203" width="220" height="423" rx="32" stroke="#4D4D4D" stroke-width="2" stroke-linecap="round" stroke-dasharray="8 16"/>
<rect x="691" y="652" width="220" height="102" rx="32" fill="#4D4D4D" fill-opacity="0.1"/>
<rect x="691" y="652" width="220" height="102" rx="32" stroke="#4D4D4D" stroke-width="2" stroke-linecap="round"/>
<rect x="439" y="203" width="220" height="423" rx="32" fill="#4D4D4D" fill-opacity="0.1"/>
<rect x="439" y="203" width="220" height="423" rx="32" stroke="#4D4D4D" stroke-width="2" stroke-linecap="round" stroke-dasharray="8 16"/>
<rect x="439" y="652" width="220" height="102" rx="32" fill="#4D4D4D" fill-opacity="0.1"/>
<rect x="439" y="652" width="220" height="102" rx="32" stroke="#4D4D4D" stroke-width="2" stroke-linecap="round"/>
<path d="M493.473 415V412.648H497.241V401.488H493.473V399.16H503.817V401.488H500.025V412.648H503.817V415H493.473ZM515.471 415.288C513.263 415.288 511.175 414.448 509.639 412.96L511.247 411.064C512.423 412.144 513.983 412.888 515.519 412.888C517.463 412.888 518.447 412.072 518.447 410.8C518.447 409.48 517.391 409.072 515.831 408.448L513.695 407.512C512.015 406.864 510.311 405.616 510.311 403.312C510.311 400.792 512.567 398.872 515.759 398.872C517.703 398.872 519.503 399.616 520.799 400.888L519.359 402.64C518.303 401.776 517.223 401.272 515.759 401.272C514.127 401.272 513.119 401.968 513.119 403.168C513.119 404.416 514.391 404.848 515.807 405.424L517.871 406.312C519.863 407.128 521.279 408.28 521.279 410.584C521.279 413.152 519.143 415.288 515.471 415.288ZM532.214 415.288C528.59 415.288 526.046 412.12 526.046 407.008C526.046 401.872 528.59 398.872 532.214 398.872C535.862 398.872 538.382 401.896 538.382 407.008C538.382 412.12 535.862 415.288 532.214 415.288ZM532.214 412.888C534.23 412.888 535.55 410.584 535.55 407.008C535.55 403.432 534.23 401.272 532.214 401.272C530.198 401.272 528.902 403.432 528.902 407.008C528.902 410.584 530.198 412.888 532.214 412.888ZM544.709 415V399.16H547.445V412.648H554.837V415H544.709ZM559.099 415L564.187 399.16H567.427L572.515 415H569.587L568.363 410.68H563.155L561.907 415H559.099ZM563.755 408.496H567.763L567.211 406.528C566.731 404.848 566.251 403.072 565.795 401.32H565.699C565.267 403.072 564.787 404.848 564.307 406.528L563.755 408.496ZM581.194 415V401.488H576.274V399.16H588.922V401.488H583.978V415H581.194ZM594.697 415V399.16H604.705V401.488H597.457V405.592H603.601V407.92H597.457V412.648H604.945V415H594.697Z" fill="#EDEDED"/>
<path d="M532.214 715.288C528.59 715.288 526.046 712.12 526.046 707.008C526.046 701.872 528.59 698.872 532.214 698.872C535.862 698.872 538.382 701.896 538.382 707.008C538.382 712.12 535.862 715.288 532.214 715.288ZM532.214 712.888C534.23 712.888 535.55 710.584 535.55 707.008C535.55 703.432 534.23 701.272 532.214 701.272C530.198 701.272 528.902 703.432 528.902 707.008C528.902 710.584 530.198 712.888 532.214 712.888ZM543.845 715V699.16H549.077C552.317 699.16 554.837 700.312 554.837 703.84C554.837 706.24 553.589 707.704 551.693 708.352L555.461 715H552.341L548.933 708.784H546.605V715H543.845ZM546.605 706.552H548.789C550.949 706.552 552.101 705.64 552.101 703.84C552.101 701.992 550.949 701.368 548.789 701.368H546.605V706.552ZM564.403 715V701.488H559.483V699.16H572.131V701.488H567.187V715H564.403Z" fill="#EDEDED"/>
<path d="M745.473 415V412.648H749.241V401.488H745.473V399.16H755.817V401.488H752.025V412.648H755.817V415H745.473ZM767.471 415.288C765.263 415.288 763.175 414.448 761.639 412.96L763.247 411.064C764.423 412.144 765.983 412.888 767.519 412.888C769.463 412.888 770.447 412.072 770.447 410.8C770.447 409.48 769.391 409.072 767.831 408.448L765.695 407.512C764.015 406.864 762.311 405.616 762.311 403.312C762.311 400.792 764.567 398.872 767.759 398.872C769.703 398.872 771.503 399.616 772.799 400.888L771.359 402.64C770.303 401.776 769.223 401.272 767.759 401.272C766.127 401.272 765.119 401.968 765.119 403.168C765.119 404.416 766.391 404.848 767.807 405.424L769.871 406.312C771.863 407.128 773.279 408.28 773.279 410.584C773.279 413.152 771.143 415.288 767.471 415.288ZM784.214 415.288C780.59 415.288 778.046 412.12 778.046 407.008C778.046 401.872 780.59 398.872 784.214 398.872C787.862 398.872 790.382 401.896 790.382 407.008C790.382 412.12 787.862 415.288 784.214 415.288ZM784.214 412.888C786.23 412.888 787.55 410.584 787.55 407.008C787.55 403.432 786.23 401.272 784.214 401.272C782.198 401.272 780.902 403.432 780.902 407.008C780.902 410.584 782.198 412.888 784.214 412.888ZM796.709 415V399.16H799.445V412.648H806.837V415H796.709ZM811.099 415L816.187 399.16H819.427L824.515 415H821.587L820.363 410.68H815.155L813.907 415H811.099ZM815.755 408.496H819.763L819.211 406.528C818.731 404.848 818.251 403.072 817.795 401.32H817.699C817.267 403.072 816.787 404.848 816.307 406.528L815.755 408.496ZM833.194 415V401.488H828.274V399.16H840.922V401.488H835.978V415H833.194ZM846.697 415V399.16H856.705V401.488H849.457V405.592H855.601V407.92H849.457V412.648H856.945V415H846.697Z" fill="#EDEDED"/>
<path d="M784.214 715.288C780.59 715.288 778.046 712.12 778.046 707.008C778.046 701.872 780.59 698.872 784.214 698.872C787.862 698.872 790.382 701.896 790.382 707.008C790.382 712.12 787.862 715.288 784.214 715.288ZM784.214 712.888C786.23 712.888 787.55 710.584 787.55 707.008C787.55 703.432 786.23 701.272 784.214 701.272C782.198 701.272 780.902 703.432 780.902 707.008C780.902 710.584 782.198 712.888 784.214 712.888ZM795.845 715V699.16H801.077C804.317 699.16 806.837 700.312 806.837 703.84C806.837 706.24 805.589 707.704 803.693 708.352L807.461 715H804.341L800.933 708.784H798.605V715H795.845ZM798.605 706.552H800.789C802.949 706.552 804.101 705.64 804.101 703.84C804.101 701.992 802.949 701.368 800.789 701.368H798.605V706.552ZM816.403 715V701.488H811.483V699.16H824.131V701.488H819.187V715H816.403Z" fill="#EDEDED"/>
<path d="M997.473 415V412.648H1001.24V401.488H997.473V399.16H1007.82V401.488H1004.02V412.648H1007.82V415H997.473ZM1019.47 415.288C1017.26 415.288 1015.18 414.448 1013.64 412.96L1015.25 411.064C1016.42 412.144 1017.98 412.888 1019.52 412.888C1021.46 412.888 1022.45 412.072 1022.45 410.8C1022.45 409.48 1021.39 409.072 1019.83 408.448L1017.7 407.512C1016.02 406.864 1014.31 405.616 1014.31 403.312C1014.31 400.792 1016.57 398.872 1019.76 398.872C1021.7 398.872 1023.5 399.616 1024.8 400.888L1023.36 402.64C1022.3 401.776 1021.22 401.272 1019.76 401.272C1018.13 401.272 1017.12 401.968 1017.12 403.168C1017.12 404.416 1018.39 404.848 1019.81 405.424L1021.87 406.312C1023.86 407.128 1025.28 408.28 1025.28 410.584C1025.28 413.152 1023.14 415.288 1019.47 415.288ZM1036.21 415.288C1032.59 415.288 1030.05 412.12 1030.05 407.008C1030.05 401.872 1032.59 398.872 1036.21 398.872C1039.86 398.872 1042.38 401.896 1042.38 407.008C1042.38 412.12 1039.86 415.288 1036.21 415.288ZM1036.21 412.888C1038.23 412.888 1039.55 410.584 1039.55 407.008C1039.55 403.432 1038.23 401.272 1036.21 401.272C1034.2 401.272 1032.9 403.432 1032.9 407.008C1032.9 410.584 1034.2 412.888 1036.21 412.888ZM1048.71 415V399.16H1051.44V412.648H1058.84V415H1048.71ZM1063.1 415L1068.19 399.16H1071.43L1076.52 415H1073.59L1072.36 410.68H1067.16L1065.91 415H1063.1ZM1067.76 408.496H1071.76L1071.21 406.528C1070.73 404.848 1070.25 403.072 1069.8 401.32H1069.7C1069.27 403.072 1068.79 404.848 1068.31 406.528L1067.76 408.496ZM1085.19 415V401.488H1080.27V399.16H1092.92V401.488H1087.98V415H1085.19ZM1098.7 415V399.16H1108.7V401.488H1101.46V405.592H1107.6V407.92H1101.46V412.648H1108.94V415H1098.7Z" fill="#EDEDED"/>
<path d="M1036.21 715.288C1032.59 715.288 1030.05 712.12 1030.05 707.008C1030.05 701.872 1032.59 698.872 1036.21 698.872C1039.86 698.872 1042.38 701.896 1042.38 707.008C1042.38 712.12 1039.86 715.288 1036.21 715.288ZM1036.21 712.888C1038.23 712.888 1039.55 710.584 1039.55 707.008C1039.55 703.432 1038.23 701.272 1036.21 701.272C1034.2 701.272 1032.9 703.432 1032.9 707.008C1032.9 710.584 1034.2 712.888 1036.21 712.888ZM1047.84 715V699.16H1053.08C1056.32 699.16 1058.84 700.312 1058.84 703.84C1058.84 706.24 1057.59 707.704 1055.69 708.352L1059.46 715H1056.34L1052.93 708.784H1050.6V715H1047.84ZM1050.6 706.552H1052.79C1054.95 706.552 1056.1 705.64 1056.1 703.84C1056.1 701.992 1054.95 701.368 1052.79 701.368H1050.6V706.552ZM1068.4 715V701.488H1063.48V699.16H1076.13V701.488H1071.19V715H1068.4Z" fill="#EDEDED"/>
</svg>
